public/images/logos/jusbrasil.svg

<?xml version="1.0" encoding="UTF-8"?><svg id="a" xmlns="http://www.w3.org/2000/svg" viewBox="0 0 260 80"><path d="m56.32,59.42v-4.41c2.1,1.53,4.64,2.36,7.24,2.37,2.67,0,4.59-.67,5.77-1.97s1.77-3.47,1.77-6.5v-27.19h4.29v27.56c.06,2.09-.29,4.17-1.01,6.13-.52,1.5-1.48,2.82-2.74,3.78-1.08.8-2.29,1.39-3.58,1.75-1.27.36-2.58.53-3.89.52-2.75.03-5.46-.68-7.84-2.05h-.01Z" style="fill-rule:evenodd; stroke-width:0px;"/><path d="m83.86,48.65v-17.03h4.27v17.23c0,2.99.65,5.16,1.95,6.5,1.65,1.55,3.87,2.32,6.12,2.14,2.24.18,4.45-.58,6.1-2.09,1.31-1.38,1.97-3.55,1.97-6.5v-17.28h4.27v17.03c0,4.08-1.08,7.24-3.22,9.48-2.43,2.35-5.73,3.56-9.1,3.36-3.38.21-6.68-1.01-9.11-3.37-2.15-2.22-3.23-5.39-3.24-9.47h0Z" style="fill-rule:evenodd; stroke-width:0px;"/><path d="m114.39,39.61c-.02-2.28.92-4.46,2.6-6,1.74-1.66,4.33-2.5,7.8-2.5,2.61.02,5.19.64,7.52,1.79v4.22c-2.11-1.3-4.53-1.99-7.01-2.02-4.44,0-6.65,1.5-6.65,4.5.02,1.06.65,2.02,1.61,2.47,1.23.68,2.54,1.21,3.89,1.56,1.59.41,3.16.9,4.71,1.48,1.54.6,2.9,1.61,3.89,2.93,1.11,1.5,1.69,3.33,1.62,5.2.09,2.35-.98,4.59-2.86,6-2.34,1.57-5.12,2.34-7.93,2.17-3.11.04-6.17-.72-8.89-2.22v-4.43c2.6,1.66,5.63,2.57,8.72,2.6,4.45,0,6.69-1.3,6.69-4.07.06-1.34-.54-2.62-1.61-3.43-1.16-.87-2.49-1.51-3.89-1.86-1.55-.42-3.11-.87-4.65-1.3-1.49-.48-2.83-1.33-3.89-2.48-1.15-1.26-1.76-2.93-1.69-4.63h0v-.02Z" style="fill-rule:evenodd; stroke-width:0px;"/><path d="m143.81,52.44c0,3.44,2.6,5.2,7.8,5.2,1,.01,2-.11,2.96-.37,1-.32,1.92-.81,2.73-1.47,1.09-.94,1.86-2.19,2.22-3.59.57-2.02.83-4.11.78-6.2,0-3.8-.72-6.5-2.18-8.28s-3.81-2.6-7.06-2.6c-2.48.01-4.95.51-7.24,1.47v15.83h-.02Zm-4.25-.24v-31.78h4.25v11.9c2.33-.8,4.78-1.19,7.24-1.2,1.27,0,2.54.11,3.78.35,1.26.25,2.47.69,3.6,1.3,1.2.67,2.27,1.54,3.16,2.6,1.01,1.28,1.76,2.75,2.19,4.32.58,2.04.85,4.15.82,6.26.04,2.3-.27,4.59-.91,6.8-.45,1.64-1.22,3.17-2.24,4.53-.88,1.06-1.96,1.94-3.17,2.6-1.07.6-2.23,1.04-3.43,1.3-2.93.51-5.92.34-8.77-.5-1.28-.37-2.49-.99-3.54-1.82-1.4-1.3-2.38-2.99-2.8-4.85-.11-.6-.17-1.21-.19-1.82h0s0,0,0,0Z" style="fill-rule:evenodd; stroke-width:0px;"/><path d="m171.07,61.03v-27.07c4.53-1.88,9.39-2.82,14.3-2.78v3.99c-3.39.11-6.75.62-10,1.53v24.34h-4.3Z" style="fill-rule:evenodd; stroke-width:0px;"/><path d="m191.95,51.99c0,3.66,2.66,5.5,7.98,5.5h.09c5.2,0,7.8-1.78,7.8-5.33v-5.64c-1.72-.25-3.46-.37-5.2-.34-7.12,0-10.67,1.94-10.67,5.81h0Zm-4.25,0c-.04-2.29.87-4.5,2.52-6.1.8-.71,1.71-1.28,2.7-1.68.94-.42,1.91-.75,2.91-1.01.98-.24,1.99-.41,3-.49,1.15-.11,1.99-.19,2.47-.21h1.74l4.72.29c0-2.68-.72-4.58-2.17-5.72-1.89-1.26-4.15-1.86-6.41-1.7-2.93-.04-5.84.43-8.61,1.4v-4.14c2.83-1.01,5.82-1.53,8.83-1.53,4.12,0,7.26,1.05,9.42,3.13s3.25,5.12,3.25,9.1v8.83c.06,1.7-.4,3.38-1.3,4.83-.8,1.28-1.97,2.29-3.36,2.88-1.25.57-2.56,1.01-3.89,1.3-1.17.22-2.36.33-3.55.34-.93,0-1.86-.06-2.78-.16-1.1-.15-2.18-.42-3.22-.8-1.12-.37-2.17-.9-3.13-1.58-.96-.74-1.73-1.69-2.26-2.77-.62-1.31-.93-2.75-.88-4.2h0Z" style="fill-rule:evenodd; stroke-width:0px;"/><path d="m217.09,39.61c-.02-2.28.93-4.46,2.6-6,1.74-1.66,4.33-2.5,7.8-2.5,2.62.02,5.19.63,7.54,1.79v4.22c-2.13-1.31-4.58-2-7.07-2.02-4.44,0-6.65,1.5-6.65,4.5.02,1.06.65,2.02,1.61,2.47,1.23.69,2.54,1.22,3.89,1.56,1.62.41,3.21.9,4.78,1.48s2.95,1.6,3.97,2.93c1.11,1.5,1.69,3.33,1.62,5.2.09,2.35-.98,4.6-2.87,6-2.33,1.57-5.11,2.33-7.92,2.17-3.11.04-6.17-.72-8.89-2.22v-4.43c2.6,1.66,5.62,2.57,8.71,2.6,4.47,0,6.71-1.3,6.71-4.07.07-1.33-.5-2.61-1.55-3.43-1.16-.87-2.49-1.51-3.89-1.86-1.55-.42-3.11-.87-4.67-1.3-1.48-.48-2.83-1.33-3.89-2.48-1.2-1.23-1.86-2.9-1.83-4.63h0v-.02Z" style="fill-rule:evenodd; stroke-width:0px;"/><path d="m242.97,61.03h4.27v-29.4h-4.27v29.41h0Zm-.24-34.58h4.72v-4.73h-4.72v4.73Z" style="fill-rule:evenodd; stroke-width:0px;"/><path d="m255.75,61.03h4.25V20.42h-4.25v40.61Z" style="fill-rule:evenodd; stroke-width:0px;"/><path d="m3.56,60.43h0c-3.4-1.96-4.58-6.29-2.62-9.69,0-.01.01-.02.02-.03l16.66-28.8c2.09-3.35,6.5-4.37,9.85-2.29,3.18,1.99,4.3,6.1,2.54,9.41l-16.69,28.78c-1.97,3.42-6.35,4.58-9.76,2.61h0Z" style="fill-rule:evenodd; stroke-width:0px;"/><path d="m44.09,60.43h0c-3.42,1.97-7.79.81-9.77-2.6l-16.69-28.79c-1.85-3.49-.52-7.82,2.98-9.66,3.32-1.76,7.43-.65,9.41,2.54l16.68,28.79c1.97,3.39.82,7.73-2.57,9.7-.01,0-.02.01-.04.02h0Z" style="fill-rule:evenodd; stroke-width:0px;"/><path d="m29.72,21.46l-.14-.21c-.08-.11-.16-.24-.26-.34l-.19-.22-.24-.26-.26-.24-.22-.19-.34-.27-.21-.14-.39-.24-.24-.13-.37-.19-.32-.13-.32-.13-.37-.11-.29-.08-.41-.08h-2.64l-.39.08-.29.08-.37.11-.32.13-.32.13-.37.19-.24.13-.41.24-.19.14-.34.27-.22.19-.26.24-.24.26-.19.22c-.09.11-.18.22-.26.34-.06.06-.11.14-.14.21-.1.12-.19.25-.26.39-1.31,2.22-1.31,4.96,0,7.17l6.19,10.69,6.2-10.69c1.3-2.22,1.3-4.96,0-7.17-.21-.13-.29-.27-.37-.39h-.01,0Z" style="fill-rule:evenodd; stroke-width:0px;"/></svg>

<?xml version="1.0" encoding="UTF-8" standalone="no"?>
<svg id="a" viewBox="0 0 32 32" version="1.1" sodipodi:docname="jusbrasil.svg" width="32" height="32" inkscape:version="1.4-beta2 (9aaf4f34, 2024-07-30)" xmlns:inkscape="http://www.inkscape.org/namespaces/inkscape" xmlns:sodipodi="http://sodipodi.sourceforge.net/DTD/sodipodi-0.dtd" xmlns="http://www.w3.org/2000/svg" xmlns:svg="http://www.w3.org/2000/svg">
  <defs id="defs12" />
  <sodipodi:namedview id="namedview12" pagecolor="#ffffff" bordercolor="#000000" borderopacity="0.25" inkscape:showpageshadow="2" inkscape:pageopacity="0.0" inkscape:pagecheckerboard="0" inkscape:deskcolor="#d1d1d1" inkscape:zoom="0.325" inkscape:cx="129.23077" inkscape:cy="38.461538" inkscape:window-width="1440" inkscape:window-height="790" inkscape:window-x="0" inkscape:window-y="0" inkscape:window-maximized="1" inkscape:current-layer="a" />
  <g id="g12" transform="matrix(0.67127756,0,0,0.67127756,0.00514443,-10.813965)">
    <path d="m 3.56,60.43 v 0 c -3.4,-1.96 -4.58,-6.29 -2.62,-9.69 0,-0.01 0.01,-0.02 0.02,-0.03 l 16.66,-28.8 c 2.09,-3.35 6.5,-4.37 9.85,-2.29 3.18,1.99 4.3,6.1 2.54,9.41 L 13.32,57.81 c -1.97,3.42 -6.35,4.58 -9.76,2.61 v 0 z" style="fill-rule:evenodd;stroke-width:0px" id="path10" />
    <path d="m 44.09,60.43 v 0 c -3.42,1.97 -7.79,0.81 -9.77,-2.6 L 17.63,29.04 c -1.85,-3.49 -0.52,-7.82 2.98,-9.66 3.32,-1.76 7.43,-0.65 9.41,2.54 L 46.7,50.71 c 1.97,3.39 0.82,7.73 -2.57,9.7 -0.01,0 -0.02,0.01 -0.04,0.02 z" style="fill-rule:evenodd;stroke-width:0px" id="path11" />
    <path d="M 29.72,21.46 29.58,21.25 C 29.5,21.14 29.42,21.01 29.32,20.91 L 29.13,20.69 28.89,20.43 28.63,20.19 28.41,20 28.07,19.73 27.86,19.59 27.47,19.35 27.23,19.22 26.86,19.03 26.54,18.9 26.22,18.77 25.85,18.66 25.56,18.58 25.15,18.5 h -2.64 l -0.39,0.08 -0.29,0.08 -0.37,0.11 -0.32,0.13 -0.32,0.13 -0.37,0.19 -0.24,0.13 -0.41,0.24 -0.19,0.14 -0.34,0.27 -0.22,0.19 -0.26,0.24 -0.24,0.26 -0.19,0.22 c -0.09,0.11 -0.18,0.22 -0.26,0.34 -0.06,0.06 -0.11,0.14 -0.14,0.21 -0.1,0.12 -0.19,0.25 -0.26,0.39 -1.31,2.22 -1.31,4.96 0,7.17 l 6.19,10.69 6.2,-10.69 c 1.3,-2.22 1.3,-4.96 0,-7.17 -0.21,-0.13 -0.29,-0.27 -0.37,-0.39 h -0.01 v 0 z" style="fill-rule:evenodd;stroke-width:0px" id="path12" />
  </g>
</svg>
